X:1
T:Sae Far Awa
M:4/4
L:1/8
K:G
 D3/2- E/2| G3/2- F/2G-A B2A-G| A3/2- G/2A-B d3 e| d/2- B3/2 A3/2- G/2A-cB-A|\
 G2 E2 E2D-E| G3/2- F/2-G-A B2 AG| A3/2- G/2A-B d3 e| d/2- B3/2A-GA-cB-A|\
 G2 E2 E2e-f| g3/2- f/2 g3/2- a/2 g2f-g|a-ga-b a2g-e| g3a-ba-g e| g2 d2 d2 g3/2- e/2|\
d-BA-G A2A-e|d-BA-G E2g-e|d-BA-GA-cB-A| G2 E2 E2||

